flaticon/essential/more.svg

<svg xmlns="http://www.w3.org/2000/svg" width="32" height="32" viewBox="0 0 24 24">
    <path d="M3.199219 8.800781C1.4375 8.800781 0 10.234375 0 12 0 13.765625 1.4375 15.199219 3.199219 15.199219 4.964844 15.199219 6.398438 13.765625 6.398438 12 6.398438 10.234375 4.964844 8.800781 3.199219 8.800781zM3.199219 14.398438C1.875 14.398438.800781 13.324219.800781 12 .800781 10.675781 1.875 9.601562 3.199219 9.601562 4.523438 9.601562 5.601562 10.675781 5.601562 12 5.601562 13.324219 4.523438 14.398438 3.199219 14.398438zM20.800781 8.800781C19.035156 8.800781 17.601562 10.234375 17.601562 12 17.601562 13.765625 19.035156 15.199219 20.800781 15.199219 22.5625 15.199219 24 13.765625 24 12 24 10.234375 22.5625 8.800781 20.800781 8.800781zM20.800781 14.398438C19.476562 14.398438 18.398438 13.324219 18.398438 12 18.398438 10.675781 19.476562 9.601562 20.800781 9.601562 22.125 9.601562 23.199219 10.675781 23.199219 12 23.199219 13.324219 22.125 14.398438 20.800781 14.398438zM12 8.800781C10.234375 8.800781 8.800781 10.234375 8.800781 12 8.800781 13.765625 10.234375 15.199219 12 15.199219 13.765625 15.199219 15.199219 13.765625 15.199219 12 15.199219 10.234375 13.765625 8.800781 12 8.800781zM12 14.398438C10.675781 14.398438 9.601562 13.324219 9.601562 12 9.601562 10.675781 10.675781 9.601562 12 9.601562 13.324219 9.601562 14.398438 10.675781 14.398438 12 14.398438 13.324219 13.324219 14.398438 12 14.398438zM12 14.398438"/>
</svg>

<svg xmlns="http://www.w3.org/2000/svg" width="32" height="32" viewBox="0 0 24 24">
    <path d="M3.2 8.8A3.203 3.203 0 0 0 0 12c0 1.766 1.438 3.2 3.2 3.2A3.2 3.2 0 0 0 6.397 12 3.2 3.2 0 0 0 3.2 8.8zm0 5.598a2.399 2.399 0 0 1 0-4.796A2.402 2.402 0 0 1 5.601 12a2.402 2.402 0 0 1-2.403 2.398zm0 0M20.8 8.8a3.2 3.2 0 0 0-3.198 3.2 3.2 3.2 0 0 0 3.199 3.2C22.563 15.2 24 13.765 24 12c0-1.766-1.438-3.2-3.2-3.2zm0 5.598A2.402 2.402 0 0 1 18.399 12a2.402 2.402 0 0 1 2.403-2.398 2.399 2.399 0 0 1 0 4.796zm0 0M12 8.8A3.2 3.2 0 0 0 8.8 12a3.2 3.2 0 0 0 3.2 3.2 3.2 3.2 0 0 0 3.2-3.2A3.2 3.2 0 0 0 12 8.8zm0 5.598a2.399 2.399 0 1 1 .001-4.797A2.399 2.399 0 0 1 12 14.398zm0 0"/>
</svg>
